assets/Toilet/Flat/toilet_flat.svg

<svg width="32" height="32" viewBox="0 0 32 32" fill="none" xmlns="http://www.w3.org/2000/svg">
<path d="M3.5 14C2.67157 14 2 14.6716 2 15.5V16.5C2 16.7761 2.22386 17 2.5 17H3.5L9 24L7 28C7 28 6 30 8 30H22C23 30 24 29 24 28V20C24 18.5 26 17 26 17H23.5C23.7761 17 24 16.7761 24 16.5V14.5C24 14.2239 23.7761 14 23.5 14H3.5Z" fill="#B4ACBC"/>
<path d="M21.0001 2C20.4478 2 20.0001 2.44772 20.0001 3V15C20.0001 15.7684 20.289 16.4692 20.764 17H3.2002C4.12674 21.5645 8.16224 25 13.0002 25C17.49 25 21.2887 22.0411 22.5527 17.9669C22.6987 17.9887 22.8481 18 23.0001 18H25.0001C26.657 18 28.0001 16.6569 28.0001 15V3C28.0001 2.44772 27.5524 2 27.0001 2H21.0001Z" fill="#CDC4D6"/>
</svg>

<svg xmlns="http://www.w3.org/2000/svg" width="32" height="32" fill="none"><path fill="#B4ACBC" d="M3.5 14A1.5 1.5 0 0 0 2 15.5v1a.5.5 0 0 0 .5.5h1L9 24l-2 4s-1 2 1 2h14c1 0 2-1 2-2v-8c0-1.5 2-3 2-3h-2.5a.5.5 0 0 0 .5-.5v-2a.5.5 0 0 0-.5-.5h-20Z"/><path fill="#CDC4D6" d="M21 2a1 1 0 0 0-1 1v12c0 .768.289 1.47.764 2H3.2c.927 4.564 4.962 8 9.8 8 4.49 0 8.289-2.959 9.553-7.033.146.022.295.033.447.033h2a3 3 0 0 0 3-3V3a1 1 0 0 0-1-1h-6Z"/></svg>
